X:1
T:Sechs Geistliche Gesänge
T:1
T:Moritz Hauptmann
T:Morgengesang
T:Op. 33, No. 1
T:CPDL   —   Creative Commons Attribution Non Commercial 3.0
T:CPDL   —   Creative Commons Attribution Non Commercial 3.0
T:CPDL   —   Creative Commons Attribution Non Commercial 3.0
T:CPDL   —   Creative Commons Attribution Non Commercial 3.0
T:CPDL   —   Creative Commons Attribution Non Commercial 3.0
T:CPDL   —   Creative Commons Attribution Non Commercial 3.0
T:CPDL   —   Creative Commons Attribution Non Commercial 3.0
T:CPDL   —   Creative Commons Attribution Non Commercial 3.0
T:CPDL   —   Creative Commons Attribution Non Commercial 3.0
T:CPDL   —   Creative Commons Attribution Non Commercial 3.0
T:CPDL   —   Creative Commons Attribution Non Commercial 3.0
T:CPDL   —   Creative Commons Attribution Non Commercial 3.0
T:CPDL   —   Creative Commons Attribution Non Commercial 3.0
T:CPDL   —   Creative Commons Attribution Non Commercial 3.0
T:CPDL   —   Creative Commons Attribution Non Commercial 3.0
C:Moritz Hauptmann
Z:CPDL   —   Creative Commons Attribution Non Commercial 3.0
%%score [ ( 1 2 ) ( 3 4 ) ( 5 6 ) ( 7 8 ) ]
L:1/8
Q:1/4=72
M:4/4
K:E
V:1 treble nm="Sopran"
V:2 treble 
V:3 treble nm="Alt"
V:4 treble 
V:5 treble-8 nm="Tenor"
V:6 treble-8 
V:7 bass nm="Bass"
V:8 bass 
V:1
!p!"^Larghetto" B6 z2 |!mf! e6 z2 |!p!!<(! c3 c c2 c2 | c2!<)! B2 z2!pp! c2 | c2 B2 z2!p! B2 | %5
w: Kommt!|kommt!|las- set uns an-|be- ten und|knie- en und|
!<(! B3 B BBBc!<)! |!f! d4 z!mf! FFF | G2 F2 z!f! BBB | B>c B2 z4 |"^Soli""^dolce" B2 A>G G2 B2 | %10
w: nie- der- fal- len vor dem|Herrn, der uns ge-|macht hat, der uns ge-|macht * hat;|denn er ist un- ser|
 e2 d>c c2 z2 | z8 | z8 |"^Tutti"!f! e2 d>e B2 B2 | B2 z2 e2 d>e | B2 !>!B4 A2 | !>!A4 z!mf! AAA | %17
w: gü- ti- ger Gott!|||denn er ist un- ser|Gott, denn er ist|Gott, un- ser|Gott, und ihn ver-|
 G2 GG c3 c | B4 z!ff! BBB | e2 ee g2 f2 | f4 e2 BB |!>(! B2 BB B2 B2 | B4 A2 E!>)!F | %23
w: kün- di- get sei- ne|Macht, und ihn ver-|kün- di- gen sei- ne|Wer- ke, er ist|Gott, er ist un- ser|Gott, er ist *|
 G2 z2!p! F3 E | E4 z2 A>G | G2 z2!>(! c3 B!>)! | B2!f! e4 B2 | %27
w: Gott, un- ser|Gott, er ist|Gott, un- ser|Gott, dan- ket|
[Q:1/4=66]"^ritard." .G2"^dim." B4 G2 | !>!!fermata!F4 z2 |"^Solo""^dolce"[Q:1/4=72] G>F | %30
w: ihm, prei- set|ihn!|Be- tet|
 F2 c2 B^AGF | F2 z2 z2!<(! F>F!<)! |"^cresc." G2 e2 dcB^A | B2 z2!<(! B2 c2 | d4!<)! (d4- | %35
w: an im hei- * li- gen|Schmuck, be- tet|an im hei- * li- gen|Schmuck, be- tet|an, be-|
 d2 c2) G2 c2 | B4-"^dim." B^AGA | B2 z2"^cresc." B2 c2 | d4 (d4- | d2 e2) G2{d} c2 | %40
w: * * tet im|hei- * * li- gen|Schmuck, be- tet|an, be-|* * tet im|
 (c2"^dim." B2- B^A)dc | B2"^Tutti" z2 z4 | z2!p! B>B B4- | B2 B>"^cresc."B c2 d2 | %44
w: hei- * * * li- gen|Schmuck.|Brin- get her,|_ bringt dem Herrn die|
!f! e3 =c =G2"^dim." A2 |!>(! B2 F2!>)! z2 B2- | B2 B>B"^cresc." c2 d2 |!f! e4 e4- | e2 =d4 =c2 | %49
w: Eh- re sei- nes|Na- mens, brin-|* get ihm Ehr' und|Macht, Eh-|* re und|
 B2 z2 z2!mf! B>B | e3 A A2 =d2 | =d2 B2 z2 B>B | e3 A A2 A=d | =d2 =G2 G2 G=c | %54
w: Macht, dan- ket|ihm dem Herrn und|prei- set, prei- set|ihn, den Herrn, und _|dan- ket, dan- ket dem|
 =c2"^cresc." B>A A2 e>^d | d2 f2 B4- | B2 A>[Q:1/4=66]"^poco rit."=G!<(! G2 A2!<)! | %57
w: Herrn, dan- ket ihm dem _|Herrn, bringt her,|_ brin- get Ehr' und|
!>(! B4!>)! z4 |"^Soli""^dolce"[Q:1/4=72]"^a tempo" B2 A>G G2 B2 | e2 d>c c2 z2 | z8 | z8 | %62
w: Macht;|denn er ist un- ser|gü- ti- ger Gott!|||
"^Tutti"!f! e2 d>e B2 B2 | B2 z2 e2 d>e | B2 !>!B4 A2 | !>!A4 z!mf! AAA | G2 GG c3 c | %67
w: denn er ist un- ser|Gott, denn er ist|Gott, un- ser|Gott, und ihn ver-|kün- di- get sei- ne|
 B4 z!ff! BBB | e2 ee g2 f2 | f4 e2 BB |"^decresc." B2 BB B2 B2 | B4 A2 EF | G2 z2!p! F3 E | %73
w: Macht, und ihn ver-|kün- di- gen sei- ne|Wer- ke, er ist|Gott, er ist un- ser|Gott, er ist *|Gott, un- ser|
 E4 z2 A>G | G2 z2!>(! c3 B!>)! | .B2!f! e4 B2 |[Q:1/4=66]"^ritard." .G2"^decresc." B4 G2 | %77
w: Gott, er ist|Gott, un- ser|Gott, dan- ket|ihm, prei- set|
 !fermata!E8 |] %78
w: ihn!|
V:2
 G6 x2 | c6 x2 | A3 A A2 A2 | A2 A2 x2 A2 | A2 A2 x2 A2 | G3 G GGGG | B4 x BBB | B2 B2 x AAA | %8
 G2 F2 x4 | G2 F>E E2 G2 | c2 B>A A2 x2 | x8 | x8 | B2 B>B B2 B2 | B2 x2 B2 B>B | B2 B4 A2 | %16
 A4 x FFF | E2 EE A3 A | G4 x GGG | c2 cc e2 d2 | d4 e2 BB | B2 BB B2 B2 | B4 A2 EF | G2 x2 F3 E | %24
 E4 x2 A>G | G2 x2 c3 B | B2 e4 B2 | G2 B4 G2 | F4 x2 | x2 | x8 | x8 | x8 | x8 | x8 | x8 | x8 | %37
 x8 | x8 | x8 | x8 | x8 | x8 | x8 | x8 | x8 | x8 | x8 | x8 | x8 | x8 | x8 | x8 | x8 | x8 | x8 | %56
 x8 | x8 | ^G2 F>E E2 G2 | c2 B>A A2 x2 | x8 | x8 | B2 B>B B2 B2 | B2 x2 B2 B>B | B2 B4 A2 | %65
 A4 x FFF | E2 EE A3 A | G4 x GGG | c2 cc e2 e2 | d4 e2 BB | B2 BB B2 B2 | B4 A2 EF | G2 x2 F3 E | %73
 E4 x2 A>G | G2 x2 c3 B | B2 e4 B2 | G2 B4 G2 | E8 |] %78
V:3
!p! G6 z2 |!mf! G6 z2 |!p!!<(! A3 A A2 G2 | F2!<)! F2 z2!pp! E2 | D2 D2 z2!p! F2 | %5
w: Kommt!|kommt!|las- set uns an-|be- ten und|knie- en und|
!<(! E3 E EEEE!<)! |!f! F4 z!mf! DDD | E2 D2 z!f! FFF | G>E F2 z4 | z4"^dolce" G2 F>E | %10
w: |||macht * hat;|denn er ist|
 E2 G2 c2 B>A | A2 z2 z4 | z8 |!f! E2 F>G A2 G2 | F2 z2 E2 F>G | A2 !>!G4 F2 | !>!F4 z!mf! DDD | %17
w: un- ser gü- ti- ger|Gott!||denn er ist un- ser|Gott, denn er ist|Gott, un- ser|Gott, und ihn ver-|
 E2 EE E2 E2 | E4 z!ff! GGG | G2 GG ^A2 A2 | A4 G2 =G2 |!>(! F4 F2 FF | G4 E2 E2!>)! | %23
w: kün- di- get sei- ne|Macht, und ihn ver-|kün- di- gen sei- ne|Wer- ke, die|Wer- ke sei- ner|Hand, er ist|
 E2 z2!p! D3 E | E4 z2 E>E | E2 z2!>(! A3 G!>)! | G2!f! G4 E2 | .E2"^dim." E4 E2 | %28
w: Gott, un- ser|Gott, er ist|Gott, un- ser|Gott, dan- ket|ihm, prei- set|
 !>!!fermata!E4 z2 |"^dolce" E2- | E2 E2 z2 (C2 | B,2) F2 z2!<(! F2!<)! |"^cresc." E4 E2 E2 | %33
w: ihn!|Be-|* tet, be-|* tet im|hei- li- gen|
 D2 z2!<(! D2 G2 | ^^F4!<)! ^F2 F2 | E3 G G2 G2 | F4"^dim." E3 E | D2 z2"^cresc." D2 ^AG | %38
w: Schmuck, be- tet|an, be- tet|an im heil'- gen,|hei- li- gen|Schmuck, be- tet _|
 ^^F4 ^F3 F | E3 E G2 G2 | (F3"^dim." G E2) FE | D2!p! D>D D2 D2 | F6!<(! E>E!<)! | %43
w: an, be- tet|an im heil'- gen|hei- * * li- gen|Schmuck. Brin- get her dem|Herrn, brin- get|
"^cresc." A6 A2 |!f! =G3 E E2"^dim." E2 |!>(!{E} D2 D2!>)!!<(! F2 E^G!<)! | A2 A4"^cresc." A2 | %47
w: her die|Eh- re sei- nes|Na- mens, brin- get dem|Herrn Ehr' und|
 =G2!f! E>E A2 G2 | F2 F>F =G2 A2 | =D2 z2 =G4- | G2 A=G F3 F | =G2 z2 G4- | G2 A=G F2 F2 | %53
w: Macht, brin- get her dem|Herrn, brin- get Ehr' und|Macht, dan-|* ket und prei- set|ihn, prei-|* set den Herrn, und|
 (=F2 =G)F E2 E2 | E2"^cresc." ^D>E E2 F2 | F2 z2 z2 F2 | B,4!<(! E3 E!<)! |!>(! D4!>)! z4 | %58
w: dan- * ket ihm dem|Herrn, dan- ket ihm dem|Herrn, bringt|her Ehr' und|Macht;|
 z4"^dolce" G2 F>E | E2 G2 c2 B>A | A2 z2 z4 | z8 |!f! E2 F>G A2 G2 | F2 z2 E2 F>G | A2 !>!G4 F2 | %65
w: denn er ist|un- ser gü- ti- ger|Gott!||denn er ist un- ser|Gott, denn er ist|Gott, un- ser|
 !>!F4 z!mf! DDD | E2 EE E2 E2 | E4 z!ff! GGG | G2 GG ^A2 A2 | =A4 G2 =G2 |"^decresc." F4 F2 FF | %71
w: Gott, und ihn ver-|kün- di- get sei- ne|Macht, und ihn ver-|kün- di- gen sei- ne|Wer- ke, die|Wer- ke sei- ner|
 G4 E2 E2 | E2 z2!p! D3 E | E4 z2 E>E | E2 z2!>(! A3 G!>)! | .G2!f! G4 E2 | .E2"^decresc." E4 E2 | %77
w: Hand, er ist|Gott, un- ser|Gott, er ist|Gott, un- ser|Gott, dan- ket|ihm, prei- set|
 !fermata!B,8 |] %78
w: ihn!|
V:4
 E6 x2 | C6 x2 | F3 F F2 E2 | D2 D2 x2 E2 | F2 F2 x2 D2 | E3 E EEEE | D4 x B,B,B, | E2 B,2 x FFF | %8
w: |||||nie- der- fal- len vor dem|Herrn, der uns ge-|macht hat, der uns ge-|
 G>E F2 x4 | x4 E2 D>C | C2 E2 A2 G>F | F2 x2 x4 | x8 | E2 F>G A2 G2 | F2 x2 E2 F>G | A2 G4 F2 | %16
w: ||||||||
 F4 x DDD | E2 EE E2 E2 | E4 x EEE | E2 GG ^A2 A2 | =A4 G2 =G2 | F4 F2 FF | G2 EE E2 E2 | %23
w: ||||||* er ist un- ser|
 E2 x2 D3 E | E4 x2 E>E | E2 x2 F3 B, | E2 G4 E2 | E2 E4 E2 | E4 x2 | x2 | x8 | x8 | x8 | x8 | x8 | %35
w: Gott * *||||||||||||
 x8 | x8 | x8 | x8 | x8 | x8 | x8 | x8 | x8 | x8 | x8 | x8 | x8 | x8 | x8 | x8 | x8 | x8 | x8 | %54
w: |||||||||||||||||||
 x8 | x8 | x8 | x8 | x4 E2 D>C | C2 E2 A2 G>F | F2 x2 x4 | x8 | E2 F>G A2 G2 | F2 x2 E2 F>G | %64
w: ||||||||||
 A2 G4 F2 | F4 x DDD | E2 EE E2 E2 | E4 x EEE | E2 GG ^A2 A2 | A4 G2 =G2 | F4 F2 FF | G2 EE E2 E2 | %72
w: |||||||* er ist un- ser|
 E2 x2 D3 E | E4 x2 E>E | E2 x2 F3 B, | E2 G4 E2 | E2 E4 E2 | B,8 |] %78
w: Gott * *||||||
V:5
 z8 | z8 | z8 | z8 | z4 z2!p! B2 |!<(! B3 B BBBB!<)! |!f! B4 z4 | z4 z!f! ddd | e2 d2 z4 | z8 | %10
w: ||||und|nie- der- fal- len vor dem|Herrn,|der uns ge-|macht hat;||
 z8 |"^dolce" c2 B>A A2 c2 | f2 e>d d2 z2 |!f! B2 B>B f2 e2 | d2 z2 B2 B>B | f2 !>!e4 e2 | %16
w: |denn er ist un- ser|gü- ti- ger Gott!|denn er ist un- ser|Gott, denn er ist|Gott, un- ser|
 !>!d4 z!mf! BBB | c2 cc A3 c | e4 z!ff! BBB | c2 ee c2 cf | (f3 B) B2 e2 |!>(! e4 d2 d2 | %22
w: Gott, und ihn ver-|kün- di- get sei- ne|Macht, und ihn ver-|kün- di- gen sei- ne _|Wer- * ke, die|Wer- ke, die|
 =d3 d c2 =c2!>)! | B2!p! BB!p! B2 B2 | B4 z2 c>B | B2 z2!>(! d3 e!>)! | B2!f! B4 G2 | %27
w: Wer- ke sei- ner|Hand, er ist un- ser|Gott, er ist|Gott, un- ser|Gott, dan- ket|
 .B2"^dim." B4 B2 | !>!!fermata!^A4 z2 |"^dolce" (B2 | c2) ^A2 z2 A>c | F2 d2 cB!<(!^AB!<)! | %32
w: ihm, prei- set|ihn!|Be-|* tet, be- tet|an im hei- * li- gen,|
"^cresc." B4 ^A2 Bc | B2 z2 z4 | z2!<(! (^A2 ^B3) G!<)! | (G4 c2) e2 | d4"^dim." c3 c | B2 z2 z4 | %38
w: hei- li- gen *|Schmuck,|be- * tet|an _ im|hei- li- gen|Schmuck,|
 z2!<(! (^A2!<)! ^B2) G2 | (G4 c2) e2 | (d3"^dim." e) c2 ^A2 | B2!p! F>F F2 F2 | =A6!<(! G>G!<)! | %43
w: be- * tet|an _ im|hei- * li- gen|Schmuck, Brin- get her dem|Herrn, brin- get|
 D3"^cresc." D E2 F2 |!f! E2 =G2 =c3"^dim." F |!>(! F2 B2!>)!!<(! A2 ^GE!<)! | %46
w: her dem Herrn die|Eh- re sei- nes|Na- mens, brin- get dem|
 D2 D>D"^cresc." E2 F2 | E2!f! =G>G =c4- | c2 B4 A2 | =G2!mf! B>B e2 =d2 | ^c4 =d3 =c | %51
w: Herrn, bringt ihm Ehr' und|Macht, brin- get her|_ Ehr' und|Macht, dan- ket ihm dem|Herrn, prei- set|
 B2 =G>G e2 =d2 | ^c4 =d2 =c2 | B3 =G =c2 B2 | A2"^cresc." B>=c c2 c2 | B2 z2 z2 A2 | %56
w: ihn, prei- set ihn, den|Herrn, dan- ket,|dan- ket ihm dem|Herrn, dan- ket ihm dem|Herrn, bringt|
 =G2 F>E!<(! E2 F2!<)! |!>(! F4!>)! z4 | z8 | z8 |"^dolce" c2 B>A A2 c2 | f2 e>d d2 z2 | %62
w: her, brin- get Ehr' und|Macht;|||denn er ist un- ser|gü- ti- ger Gott!|
!f! B2 B>B f2 e2 | d2 z2 B2 B>B | f2 !>!e4 e2 | !>!d4 z!mf! BBB | c2 cc A3 c | e4 z!ff! BBB | %68
w: denn er ist un- ser|Gott, denn er ist|Gott, un- ser|Gott, und ihn ver-|kün- di- get sei- ne|Macht, und ihn ver-|
 c2 ee c2 cf | (f3 B) B2 e2 |"^decresc." e4 d2 d2 | =d3 d c2 =c2 | B2!p! BB!p! B2 B2 | B4 z2 c>B | %74
w: kün- di- gen sei- ne *|Wer- * ke, die|Wer- ke, die|Wer- ke sei- ner|Hand, er ist un- ser|Gott, er ist|
 B2 z2!>(! d3 e!>)! | .B2!f! B4 G2 | .B2"^decresc." G4 B2 | !fermata!G8 |] %78
w: Gott, un- ser|Gott, dan- ket|ihm, prei- set|ihn!|
V:6
 x8 | x8 | x8 | x8 | x4 x2 F2 | G3 G GGGG | F4 x4 | x4 x BBB | B>G B2 x4 | x8 | x8 | A2 G>F F2 A2 | %12
w: ||||||||||||
 d2 c>B B2 x2 | B2 B>B B2 B2 | B2 x2 B2 B>B | B2 (B2 c2) c2 | B4 x BBB | c2 cc A3 c | e4 x GGG | %19
w: |||||||
 G2 cc c2 c2 | B4 B2 e2 | e4 d2 d2 | =d3 d c2 =c2 | B2 z2 A3 G | G4 x2 c>B | B2 x2 d3 e | %26
w: ||||* un- ser|Gott, * *||
 B2 B4 G2 | B2 B4 B2 | ^A4 x2 | x2 | x8 | x8 | x8 | x8 | x8 | x8 | x8 | x8 | x8 | x8 | x8 | x8 | %42
w: ||||||||||||||||
 x8 | x8 | x8 | x8 | x8 | x8 | x8 | x8 | x8 | x8 | x8 | x8 | x8 | x8 | x8 | x8 | x8 | x8 | %60
w: ||||||||||||||||||
 A2 G>F F2 A2 | d2 c>B B2 x2 | B2 B>B B2 B2 | B2 x2 B2 B>B | B2 (B2 c2) c2 | B4 x BBB | %66
w: ||||||
 c2 cc A3 c | e4 x GGG | G2 cc c2 c2 | B4 B2 e2 | e4 d2 d2 | =d3 d c2 =c2 | B2 z2 A3 G | %73
w: ||||||* un- ser|
 G4 x2 c>B | B2 x2 d3 e | B2 B4 G2 | B2 G4 B2 | G8 |] %78
w: Gott, * *|||||
V:7
 z8 | z8 | z8 | z8 | z4 z2!p! B,,2 |!<(! E,3 E, E,E,E,E,!<)! |!f! B,,4 z4 | z4 z!f! B,,B,,B,, | %8
w: ||||und|nie- der- fal- len vor dem|Herrn,|der uns ge-|
 E,2 B,,2 z4 | z8 | z8 | z4"^dolce" A,2 G,>F, | F,2 A,2 D2 C>B, |!f! B,2 A,>G, F,2 G,E, | %14
w: macht hat;|||denn er ist|un- ser gü- ti- ger|Gott! er ist un- ser *|
 F,2 z2 B,2 A,>G, | F,2 (!>!G,2 E,2) A,2 | !>!F,4 z4 | z8 | z4 z!ff! E,E,E, | C,2 CC F,2 F,2 | %20
w: Gott, denn er ist|Gott, un- * ser|Gott,||und ihn ver-|kün- di- gen sei- ne|
 B,,2 B,,B,, (E,2 =G,2 |!>(! B,4) B,,2 B,,B,, | E,8-!>)! | E,2 z2!p! E,4- | E,2 E,E, E,2 E,2 | %25
w: Wer- ke, die Wer- *|* ke sei- ner|Hand,|_ denn|_ er ist un- ser|
!<(! E,2 E,E,!<)!!>(! E,2 E,E,!>)! | E,2!f! E,4 E,2 | .E,2"^dim." G,,4 B,,2 | !>!!fermata!C,4 z2 | %29
w: Gott, un- ser gü- ti- ger|Gott, dan- ket|ihm, prei- set|ihn!|
"^dolce" (B,,2 | ^A,,2) F,,2 z2 (E,2 | D,2) B,,2 z2!<(! D,>D,!<)! |"^cresc." C,4 F,3 F, | %33
w: Be-|* tet, be-|* tet, be- tet|an, be- tet|
 G,2 B,2!<(! ^A,G,F,E, | D,4!<)! G,,2 G,,2 | C,3 E, E,2 C,2 | F,4"^dim." F,3 F, | %37
w: an im hei- * li- gen|Schmuck, be- tet|an im heil'- gen,|hei- li- gen|
 G,2 (B,2"^cresc." ^A,G,) F,E, | D,4 G,,2 ^B,,2 | C,3 C, E,2 C,2 | F,4"^dim." F,3 F, | %41
w: Schmuck, be- * * tet _|an, be- tet|an im heil'- gen|hei- li- gen|
 B,,2!p! !>!B,,4 B,,>B,, | B,,6!<(! B,,>B,,!<)! |"^cresc." B,,6 B,,>B,, |!f! =C,8 | %45
w: Schmuck. Brin- get dem|Herrn, brin- get|her, brin- get|Eh-|
"^dim." B,,2 B,,>B,, B,,4- | B,,2 B,,4"^cresc." B,,2 | =C,6 A,,>A,, | =D,2 D,>D, E,2 F,2 | %49
w: re, brin- get ihm|_ Ehr' und|Macht, brin- get|her, brin- get Ehr' und|
 =G,2 z2 z4 | z8 | z8 | z8 | z8 | z8 | z4 z2!mf! ^D,2 | E,4!<(! =C,3 C,!<)! |!>(! B,,4!>)! z4 | %58
w: Macht,||||||bringt|her Ehr' und|Macht;|
 z8 | z8 | z4"^dolce" A,2 G,>F, | F,2 A,2 D2 C>B, |!f! B,2 A,>G, F,2 G,E, | F,2 z2 B,2 A,>G, | %64
w: ||denn er ist|un- ser gü- ti- ger|Gott! er ist un- ser *|Gott, denn er ist|
 F,2 (!>!G,2 E,2) A,2 | !>!F,4 z4 | z8 | z4 z!ff! E,E,E, | C,2 CC F,2 F,2 | B,,2 B,,B,, (E,2 =G,2 | %70
w: Gott, un- * ser|Gott,||und ihn ver-|kün- di- gen sei- ne|Wer- ke, die Wer- *|
"^decresc." B,4) B,,2 B,,B,, | E,8- | E,2 z2!p! E,4- | E,2 E,E, E,2 E,2 | %74
w: * ke sei- ner|Hand,|_ denn|_ er ist un- ser|
!<(! E,2 E,E,!<)!!>(! E,2 E,E,!>)! | .E,2!f! E,4 E,2 | .E,2"^decresc." E,4 E,2 | !fermata!E,8 |] %78
w: Gott, un- ser gü- ti- ger|Gott, dan- ket|ihm, prei- set|ihn!|
V:8
 x8 | x8 | x8 | x8 | x4 x2 B,,2 | E,3 E, E,E,E,E, | B,,4 x4 | x4 x B,,B,,B,, | E,2 B,,2 x4 | x8 | %10
 x8 | x4 F,2 E,>D, | D,2 F,2 B,2 A,>G, | G,2 F,>E, D,2 E,2 | B,,2 x2 G,2 F,>E, | %15
 D,2 (E,2 C,2) F,2 | B,,4 x4 | x8 | x4 x E,E,E, | C,2 CC F,2 F,2 | B,,2 B,,B,, B,,4- | %21
 B,,4 B,,2 B,,B,, | E,,8- | E,,2 x2 E,,4- | E,,2 E,E, E,2 E,2 | E,2 E,E, E,2 E,E, | E,2 E,4 E,2 | %27
 E,2 G,,4 B,,2 | C,4 x2 | x2 | x8 | x8 | x8 | x8 | x8 | x8 | x8 | x8 | x8 | x8 | x8 | x8 | x8 | %43
 x8 | x8 | x8 | x8 | x8 | x8 | x8 | x8 | x8 | x8 | x8 | x8 | x8 | x8 | x8 | x8 | x8 | %60
 x4 F,2 E,>D, | D,2 F,2 B,2 A,>G, | G,2 F,>E, D,2 E,2 | B,,2 x2 G,2 F,>E, | D,2 (E,2 C,2) F,2 | %65
 B,,4 x4 | x8 | x4 x E,E,E, | C,2 CC F,2 F,2 | B,,2 B,,B,, B,,4- | B,,4 B,,2 B,,B,, | E,,8- | %72
 E,,2 x2 E,,4- | E,,2 E,E, E,2 E,2 | E,2 E,E, E,2 E,E, | E,2 E,4 E,2 | E,2 E,,4 E,,2 | E,,8 |] %78

